X: 126
T: Peat Fire Flame
C: R-61
M: C|
Z: Transcribed to abc by Mary Lou Knack
R: reel
K: Em
B2| "Em"E3F G3F| E2D2 B4| "D"B2A2 A2GA| B2A2 A2B2|
    "Em"E3F G3F| E2D2 B3A| "Am"G2E2 "B7"F2^D2| "Em"E6 :|
|:\
E2| "G"G3A B2gf| e2d2 B4| "D7"B2A2 A2GA| B2A2 A2BA|
    "G"G3A B2gf| e2d2 B3A|"Em"G2E2 "B7"F2^D2| "Em"E6 :|
%%text 9/1/98


